svg/emoji_u1f9e3.svg

<svg width="128" height="128" xmlns="http://www.w3.org/2000/svg" xmlns:xlink="http://www.w3.org/1999/xlink"><linearGradient id="a" gradientUnits="userSpaceOnUse" x1="43.213" x2="28.042" y1="47.765" y2="114.106"><stop offset="0" stop-color="#558b2f"/></linearGradient><path d="M27.58 109.79c-15.61-4.66-15.36-8.88-14.78-11.13l17.98-69.11c.56-2.14 2.53-3.43 4.46-2.92l24.12 6.41c1.93.51 3.11 2.64 2.69 4.81L48.2 108.06c-.45 2.28-5.01 6.39-20.62 1.73z" fill="url(#a)"/><path d="M34.39 29.52c.03 0 .05 0 .08.01l24.12 6.41c.3.08.65.64.51 1.33l-13.83 70.14c-.23.42-1.67 1.5-5.52 1.5-3.05 0-6.85-.67-11.31-2-7.82-2.33-10.92-4.36-12.14-5.66-.84-.89-.74-1.29-.59-1.84L33.69 30.3c.13-.54.49-.78.7-.78m0-3c-1.63 0-3.13 1.21-3.61 3.03L12.8 98.66c-.58 2.24-.83 6.47 14.78 11.13 5.19 1.55 9.16 2.13 12.17 2.13 6.02 0 8.15-2.33 8.45-3.85l13.84-70.21c.43-2.17-.76-4.3-2.69-4.81l-24.12-6.41a2.71 2.71 0 0 0-.84-.12z" fill="#424242" opacity=".2"/><defs><path id="b" d="M27.58 109.79c-15.61-4.66-15.36-8.88-14.78-11.13l17.98-69.11c.56-2.14 2.53-3.43 4.46-2.92l24.12 6.41c1.93.51 3.11 2.64 2.69 4.81L48.2 108.06c-.45 2.28-5.01 6.39-20.62 1.73z"/></defs><linearGradient id="c" gradientUnits="userSpaceOnUse" x1="41.479" x2="67.45" y1="62.514" y2="120.627"><stop offset="0" stop-color="#558b2f"/></linearGradient><path d="M43.32 122.8c-15.94-3.34-16.05-7.58-15.65-9.86l12.17-70.37c.38-2.18 2.24-3.63 4.2-3.28l24.57 4.38c1.96.35 3.32 2.37 3.08 4.57l-7.96 71.12c-.26 2.32-4.46 6.78-20.41 3.44z" fill="url(#c)"/><defs><path id="d" d="M43.32 122.8c-15.94-3.34-16.05-7.58-15.65-9.86l12.17-70.37c.38-2.18 2.24-3.63 4.2-3.28l24.57 4.38c1.96.35 3.32 2.37 3.08 4.57l-7.96 71.12c-.26 2.32-4.46 6.78-20.41 3.44z"/></defs><clipPath id="e"><use xlink:href="#d" overflow="visible"/></clipPath><g clip-path="url(#e)"><path d="M61.89 83.67c-3.65.2-8.22.19-13.48-.38-12.64-1.36-20-7.26-20.31-7.51-2.16-1.77-2.67-8.31-.91-10.48a5.053 5.053 0 0 1 7.08-.74c.16.12 6.7 4 16.1 5.01 11.73 1.26 18.32-.31 18.39-.33 2.69-.67 5.45.95 6.14 3.65.69 2.7-.74 8.81-3.44 9.5-.22.07-3.72.95-9.57 1.28z" fill="#c4d100"/></g><g clip-path="url(#e)"><path d="M58.8 110.41c-3.65.2-8.22.19-13.48-.38-12.64-1.36-20-7.26-20.31-7.51-2.16-1.77-2.67-8.31-.91-10.48a5.053 5.053 0 0 1 7.08-.74c.16.12 6.7 4 16.1 5.01 11.73 1.26 18.32-.31 18.39-.33 2.69-.67 5.45.95 6.14 3.65.69 2.7-.74 8.81-3.44 9.5-.21.07-3.71.95-9.57 1.28z" fill="#c4d100"/></g><path d="M43.46 42.24c.02 0 .04 0 .06.01l24.57 4.38c.31.05.7.58.62 1.29l-7.95 71.05c-.22.47-1.98 2.04-7.37 2.04-2.67 0-5.85-.38-9.44-1.14-7.98-1.67-11.24-3.44-12.57-4.63-.91-.82-.84-1.22-.74-1.78L42.8 43.08c.1-.55.44-.84.66-.84m0-3c-1.74 0-3.28 1.37-3.62 3.33l-12.17 70.37c-.39 2.28-.29 6.52 15.65 9.86 4.08.86 7.39 1.2 10.06 1.2 7.77 0 10.15-2.91 10.34-4.63l7.96-71.12c.25-2.2-1.11-4.22-3.08-4.57L44.03 39.3c-.18-.05-.38-.06-.57-.06z" fill="#424242" opacity=".2"/><linearGradient id="f" gradientUnits="userSpaceOnUse" x1="63.676" x2="63.676" y1="21.167" y2="66.611"><stop offset="0" stop-color="#558b2f"/></linearGradient><path d="M63.52 62.29c-39.8 0-49.68-16.99-51.76-22.19-2.71-6.79.22-14.65 6.54-17.56 5.93-2.73 12.75-.14 15.81 5.8.87.98 7.25 7.21 29.41 7.21 22.46 0 28.96-6.41 29.81-7.37 3.15-5.92 10.05-8.4 15.95-5.53 6.27 3.04 9.05 10.97 6.21 17.7-2.17 5.14-12.34 21.94-51.97 21.94z" fill="url(#f)"/><g><defs><path id="g" d="M63.52 62.29c-39.8 0-49.68-16.99-51.76-22.19-2.71-6.79.22-14.65 6.54-17.56 5.93-2.73 12.75-.14 15.81 5.8.87.98 7.25 7.21 29.41 7.21 22.46 0 28.96-6.41 29.81-7.37 3.15-5.92 10.05-8.4 15.95-5.53 6.27 3.04 9.05 10.97 6.21 17.7-2.17 5.14-12.34 21.94-51.97 21.94z"/></defs><clipPath id="h"><use xlink:href="#g" overflow="visible"/></clipPath><path d="M76.9 64.95H52.28s-2.26-8.04.29-19.39c2.62-11.65 5.72-13.77 5.72-13.77h12.16s3.68 3.28 5.57 13.18c1.99 10.37.88 19.98.88 19.98z" clip-path="url(#h)" fill="#c4d100"/><g clip-path="url(#h)"><path d="M35.07 59.3l-12.79-6.16s-3.27-10.65 2.33-17.77C31 27.25 38.04 24.83 38.04 24.83l10.17 6.69s-6.34 4.16-9.32 11.72c-2.19 5.55-2.24 10.68-1.55 14.32.24 1.29-1.08 2.32-2.27 1.74z" fill="#c4d100"/></g><g clip-path="url(#h)"><path d="M94.42 59.3l12.79-6.16s.89-9.76-3.33-17.77c-4.83-9.16-12.84-11.31-12.84-11.31l-9.66 6.69s6.24 4.93 9.23 12.49c2.19 5.55 2.24 10.68 1.55 14.32-.25 1.29 1.07 2.32 2.26 1.74z" fill="#c4d100"/></g></g><g><linearGradient id="i" gradientUnits="userSpaceOnUse" x1="64.333" x2="64.333" y1="36.541" y2="4"><stop offset="0" stop-color="#558b2f"/></linearGradient><path d="M64.21 36.54c-30.88 0-38.75-12.6-40.43-16.46-2.46-5.67-.16-12.4 5.15-15.03 4.15-2.06 8.9-1 11.96 2.26 2.02 2.16 4.46 3.89 7.3 4.73 3.39 1 8.5 1.87 16.03 1.87 7.56 0 12.71-.88 16.15-1.89 2.91-.86 5.42-2.63 7.53-4.82 3.11-3.23 7.91-4.2 12.04-2.04 5.25 2.75 7.43 9.53 4.85 15.14-1.75 3.81-9.84 16.24-40.58 16.24z" fill="url(#i)"/></g><g opacity=".2"><path d="M33.38 7c1.97 0 3.9.86 5.31 2.37 2.58 2.75 5.48 4.62 8.64 5.55 4.48 1.32 10.16 1.99 16.88 1.99 6.75 0 12.47-.68 17-2.01 3.18-.94 6.15-2.83 8.84-5.62C91.45 7.83 93.36 7 95.29 7c1.13 0 2.23.27 3.26.81 3.85 2.02 5.43 7.05 3.52 11.23-.09.2-.25.51-.48.92-.53.93-.53 2.07 0 3 .53.93 1.52 1.5 2.59 1.5 1.33 0 2.61.3 3.8.88 4.85 2.35 6.98 8.56 4.76 13.83-1.99 4.72-11.42 20.11-49.21 20.11-37.91 0-47.07-15.54-48.98-20.3-2.13-5.32.12-11.47 5.01-13.72a8.61 8.61 0 0 1 4.63-.74 3.009 3.009 0 0 0 2.85-1.33c.62-.95.66-2.16.09-3.15-.29-.51-.48-.91-.59-1.16-1.83-4.22-.16-9.22 3.73-11.14.99-.49 2.04-.74 3.11-.74m0-3c-1.49 0-3.01.34-4.45 1.06-5.31 2.63-7.61 9.36-5.15 15.03.17.4.42.9.74 1.46a11.661 11.661 0 0 0-6.23.99c-6.33 2.91-9.25 10.77-6.54 17.56 2.08 5.2 11.96 22.19 51.76 22.19 39.63 0 49.8-16.8 51.97-21.95 2.84-6.73.06-14.65-6.21-17.7-1.66-.81-3.39-1.18-5.1-1.18.26-.44.46-.84.61-1.17 2.57-5.61.4-12.39-4.85-15.14A9.984 9.984 0 0 0 95.29 4c-2.74 0-5.41 1.14-7.4 3.2-2.1 2.19-4.61 3.96-7.53 4.82-3.44 1.01-8.59 1.89-16.15 1.89-7.54 0-12.65-.87-16.03-1.87-2.84-.84-5.28-2.57-7.3-4.73C38.89 5.19 36.18 4 33.38 4z" fill="#424242"/></g><g><defs><path id="j" d="M64.21 36.54c-30.88 0-38.75-12.6-40.43-16.46-2.46-5.67-.16-12.4 5.15-15.03 4.15-2.06 8.9-1 11.96 2.26 2.02 2.16 4.46 3.89 7.3 4.73 3.39 1 8.5 1.87 16.03 1.87 7.56 0 12.71-.88 16.15-1.89 2.91-.86 5.42-2.63 7.53-4.82 3.11-3.23 7.91-4.2 12.04-2.04 5.25 2.75 7.43 9.53 4.85 15.14-1.75 3.81-9.84 16.24-40.58 16.24z"/></defs><clipPath id="k"><use xlink:href="#j" overflow="visible"/></clipPath><g clip-path="url(#k)"><path d="M45.08 36.92S42.73 29.21 44 22.5s8.33-10.92 8.33-10.92L41.86 6.74s-3.68 0-8.42 7.91.04 16.12.04 16.12l11.58 5.97" fill="#c4d100"/></g><g clip-path="url(#k)"><path d="M83 36.74l11.58-5.97s5.7-7.65.96-15.56-9.34-8.47-9.34-8.47l-10.4 5.7s6.82 2.33 8.68 7.36c2.63 7.08 0 14.03-1.48 16.94z" fill="#c4d100"/></g><path d="M73 37.75l-17.25-.17s-1.57-5.75-.29-14.11c1.19-7.78 3.31-9.54 3.31-9.54h11.25s2.09 2.01 3.75 9.54c1.67 7.54-.77 14.28-.77 14.28z" clip-path="url(#k)" fill="#c4d100"/></g></svg>

<?xml version="1.0" encoding="UTF-8" standalone="no"?>
<!DOCTYPE svg PUBLIC "-//W3C//DTD SVG 1.1//EN" "http://www.w3.org/Graphics/SVG/1.1/DTD/svg11.dtd">
<svg width="100%" height="100%" viewBox="0 0 128 128" version="1.1" xmlns="http://www.w3.org/2000/svg" xmlns:xlink="http://www.w3.org/1999/xlink" xml:space="preserve" xmlns:serif="http://www.serif.com/" style="fill-rule:evenodd;clip-rule:evenodd;stroke-linejoin:round;stroke-miterlimit:2;">
    <path d="M27.58,109.79C11.97,105.13 12.22,100.91 12.8,98.66L30.78,29.55C31.34,27.41 33.31,26.12 35.24,26.63L59.36,33.04C61.29,33.55 62.47,35.68 62.05,37.85L48.2,108.06C47.75,110.34 43.19,114.45 27.58,109.79Z" style="fill:rgb(72,118,40);fill-rule:nonzero;"/>
    <path d="M43.32,122.8C27.38,119.46 27.27,115.22 27.67,112.94L39.84,42.57C40.22,40.39 42.08,38.94 44.04,39.29L68.61,43.67C70.57,44.02 71.93,46.04 71.69,48.24L63.73,119.36C63.47,121.68 59.27,126.14 43.32,122.8Z" style="fill:rgb(111,160,59);fill-rule:nonzero;"/>
    <g>
        <clipPath id="_clip1">
            <path d="M43.32,122.8C27.38,119.46 27.27,115.22 27.67,112.94L39.84,42.57C40.22,40.39 42.08,38.94 44.04,39.29L68.61,43.67C70.57,44.02 71.93,46.04 71.69,48.24L63.73,119.36C63.47,121.68 59.27,126.14 43.32,122.8Z"/>
        </clipPath>
        <g clip-path="url(#_clip1)">
            <path d="M61.89,83.67C58.24,83.87 53.67,83.86 48.41,83.29C35.77,81.93 28.41,76.03 28.1,75.78C25.94,74.01 25.43,67.47 27.19,65.3C28.935,63.165 32.121,62.832 34.27,64.56C34.43,64.68 40.97,68.56 50.37,69.57C62.1,70.83 68.69,69.26 68.76,69.24C71.45,68.57 74.21,70.19 74.9,72.89C75.59,75.59 74.16,81.7 71.46,82.39C71.24,82.46 67.74,83.34 61.89,83.67Z" style="fill:rgb(189,207,70);fill-rule:nonzero;"/>
        </g>
    </g>
    <g>
        <clipPath id="_clip2">
            <path d="M43.32,122.8C27.38,119.46 27.27,115.22 27.67,112.94L39.84,42.57C40.22,40.39 42.08,38.94 44.04,39.29L68.61,43.67C70.57,44.02 71.93,46.04 71.69,48.24L63.73,119.36C63.47,121.68 59.27,126.14 43.32,122.8Z"/>
        </clipPath>
        <g clip-path="url(#_clip2)">
            <path d="M58.8,110.41C55.15,110.61 50.58,110.6 45.32,110.03C32.68,108.67 25.32,102.77 25.01,102.52C22.85,100.75 22.34,94.21 24.1,92.04C25.845,89.905 29.031,89.572 31.18,91.3C31.34,91.42 37.88,95.3 47.28,96.31C59.01,97.57 65.6,96 65.67,95.98C68.36,95.31 71.12,96.93 71.81,99.63C72.5,102.33 71.07,108.44 68.37,109.13C68.16,109.2 64.66,110.08 58.8,110.41Z" style="fill:rgb(189,207,70);fill-rule:nonzero;"/>
        </g>
    </g>
    <path d="M63.52,62.29C23.72,62.29 13.84,45.3 11.76,40.1C9.05,33.31 11.98,25.45 18.3,22.54C24.23,19.81 31.05,22.4 34.11,28.34C34.98,29.32 41.36,35.55 63.52,35.55C85.98,35.55 92.48,29.14 93.33,28.18C96.48,22.26 103.38,19.78 109.28,22.65C115.55,25.69 118.33,33.62 115.49,40.35C113.32,45.49 103.15,62.29 63.52,62.29Z" style="fill:rgb(111,160,59);fill-rule:nonzero;"/>
    <g>
        <clipPath id="_clip3">
            <path d="M63.52,62.29C23.72,62.29 13.84,45.3 11.76,40.1C9.05,33.31 11.98,25.45 18.3,22.54C24.23,19.81 31.05,22.4 34.11,28.34C34.98,29.32 41.36,35.55 63.52,35.55C85.98,35.55 92.48,29.14 93.33,28.18C96.48,22.26 103.38,19.78 109.28,22.65C115.55,25.69 118.33,33.62 115.49,40.35C113.32,45.49 103.15,62.29 63.52,62.29Z"/>
        </clipPath>
        <g clip-path="url(#_clip3)">
            <path d="M76.9,64.95L52.28,64.95C52.28,64.95 50.02,56.91 52.57,45.56C55.19,33.91 58.29,31.79 58.29,31.79L70.45,31.79C70.45,31.79 74.13,35.07 76.02,44.97C78.01,55.34 76.9,64.95 76.9,64.95Z" style="fill:rgb(189,207,70);fill-rule:nonzero;"/>
        </g>
        <g>
            <clipPath id="_clip4">
                <path d="M63.52,62.29C23.72,62.29 13.84,45.3 11.76,40.1C9.05,33.31 11.98,25.45 18.3,22.54C24.23,19.81 31.05,22.4 34.11,28.34C34.98,29.32 41.36,35.55 63.52,35.55C85.98,35.55 92.48,29.14 93.33,28.18C96.48,22.26 103.38,19.78 109.28,22.65C115.55,25.69 118.33,33.62 115.49,40.35C113.32,45.49 103.15,62.29 63.52,62.29Z"/>
            </clipPath>
            <g clip-path="url(#_clip4)">
                <path d="M35.07,59.3L22.28,53.14C22.28,53.14 19.01,42.49 24.61,35.37C31,27.25 38.04,24.83 38.04,24.83L48.21,31.52C48.21,31.52 41.87,35.68 38.89,43.24C36.7,48.79 36.65,53.92 37.34,57.56C37.58,58.85 36.26,59.88 35.07,59.3Z" style="fill:rgb(189,207,70);fill-rule:nonzero;"/>
            </g>
        </g>
        <g>
            <clipPath id="_clip5">
                <path d="M63.52,62.29C23.72,62.29 13.84,45.3 11.76,40.1C9.05,33.31 11.98,25.45 18.3,22.54C24.23,19.81 31.05,22.4 34.11,28.34C34.98,29.32 41.36,35.55 63.52,35.55C85.98,35.55 92.48,29.14 93.33,28.18C96.48,22.26 103.38,19.78 109.28,22.65C115.55,25.69 118.33,33.62 115.49,40.35C113.32,45.49 103.15,62.29 63.52,62.29Z"/>
            </clipPath>
            <g clip-path="url(#_clip5)">
                <path d="M94.42,59.3L107.21,53.14C107.21,53.14 108.1,43.38 103.88,35.37C99.05,26.21 91.04,24.06 91.04,24.06L81.38,30.75C81.38,30.75 87.62,35.68 90.61,43.24C92.8,48.79 92.85,53.92 92.16,57.56C91.91,58.85 93.23,59.88 94.42,59.3Z" style="fill:rgb(189,207,70);fill-rule:nonzero;"/>
            </g>
        </g>
    </g>
    <g>
        <path d="M64.21,36.54C33.33,36.54 25.46,23.94 23.78,20.08C21.32,14.41 23.62,7.68 28.93,5.05C33.08,2.99 37.83,4.05 40.89,7.31C42.91,9.47 45.35,11.2 48.19,12.04C51.58,13.04 56.69,13.91 64.22,13.91C71.78,13.91 76.93,13.03 80.37,12.02C83.28,11.16 85.79,9.39 87.9,7.2C91.01,3.97 95.81,3 99.94,5.16C105.19,7.91 107.37,14.69 104.79,20.3C103.04,24.11 94.95,36.54 64.21,36.54Z" style="fill:rgb(111,160,59);fill-rule:nonzero;"/>
    </g>
    <g>
        <g>
            <clipPath id="_clip6">
                <path d="M64.21,36.54C33.33,36.54 25.46,23.94 23.78,20.08C21.32,14.41 23.62,7.68 28.93,5.05C33.08,2.99 37.83,4.05 40.89,7.31C42.91,9.47 45.35,11.2 48.19,12.04C51.58,13.04 56.69,13.91 64.22,13.91C71.78,13.91 76.93,13.03 80.37,12.02C83.28,11.16 85.79,9.39 87.9,7.2C91.01,3.97 95.81,3 99.94,5.16C105.19,7.91 107.37,14.69 104.79,20.3C103.04,24.11 94.95,36.54 64.21,36.54Z"/>
            </clipPath>
            <g clip-path="url(#_clip6)">
                <path d="M45.08,36.92C45.08,36.92 42.73,29.21 44,22.5C45.27,15.79 52.33,11.58 52.33,11.58L41.86,6.74C41.86,6.74 38.18,6.74 33.44,14.65C28.7,22.56 33.48,30.77 33.48,30.77L45.06,36.74" style="fill:rgb(189,207,70);fill-rule:nonzero;"/>
            </g>
        </g>
        <g>
            <clipPath id="_clip7">
                <path d="M64.21,36.54C33.33,36.54 25.46,23.94 23.78,20.08C21.32,14.41 23.62,7.68 28.93,5.05C33.08,2.99 37.83,4.05 40.89,7.31C42.91,9.47 45.35,11.2 48.19,12.04C51.58,13.04 56.69,13.91 64.22,13.91C71.78,13.91 76.93,13.03 80.37,12.02C83.28,11.16 85.79,9.39 87.9,7.2C91.01,3.97 95.81,3 99.94,5.16C105.19,7.91 107.37,14.69 104.79,20.3C103.04,24.11 94.95,36.54 64.21,36.54Z"/>
            </clipPath>
            <g clip-path="url(#_clip7)">
                <path d="M83,36.74L94.58,30.77C94.58,30.77 100.28,23.12 95.54,15.21C90.8,7.3 86.2,6.74 86.2,6.74L75.8,12.44C75.8,12.44 82.62,14.77 84.48,19.8C87.11,26.88 84.48,33.83 83,36.74Z" style="fill:rgb(189,207,70);fill-rule:nonzero;"/>
            </g>
        </g>
        <clipPath id="_clip8">
            <path d="M64.21,36.54C33.33,36.54 25.46,23.94 23.78,20.08C21.32,14.41 23.62,7.68 28.93,5.05C33.08,2.99 37.83,4.05 40.89,7.31C42.91,9.47 45.35,11.2 48.19,12.04C51.58,13.04 56.69,13.91 64.22,13.91C71.78,13.91 76.93,13.03 80.37,12.02C83.28,11.16 85.79,9.39 87.9,7.2C91.01,3.97 95.81,3 99.94,5.16C105.19,7.91 107.37,14.69 104.79,20.3C103.04,24.11 94.95,36.54 64.21,36.54Z"/>
        </clipPath>
        <g clip-path="url(#_clip8)">
            <path d="M73,37.75L55.75,37.58C55.75,37.58 54.18,31.83 55.46,23.47C56.65,15.69 58.77,13.93 58.77,13.93L70.02,13.93C70.02,13.93 72.11,15.94 73.77,23.47C75.44,31.01 73,37.75 73,37.75Z" style="fill:rgb(189,207,70);fill-rule:nonzero;"/>
        </g>
    </g>
</svg>
